exports/percentage-of-households-using-solid-fuels-for-cooking-rural-vs-urban_v1_850x600.svg

<svg xmlns="http://www.w3.org/2000/svg" version="1.1" style="background-color:#fff;-webkit-font-smoothing:antialiased" width="850" height="600" font-family="'Helvetica Neue',Helvetica,Arial,sans-serif" font-size="18" text-rendering="optimizeLegibility"><g class="ChartTab"><g class="HeaderView"><g opacity=".8" transform="matrix(.31 0 0 .31 770 15)"><a xmlns:xlink="http://www.w3.org/1999/xlink" xlink:href="https://ourworldindata.org" target="_blank"><g><path fill="#1B2543" d="M0 0h211.2v130.1H0z"/><path fill="#E63912" d="M0 112.2h211.2v17.9H0z"/><g><path fill="none" d="M1.2 12.3h210.2v99.2H1.2z"/><path fill="#FFF" d="M37.8 32.2c0 12.7-7.7 19.4-17.1 19.4-9.7 0-16.6-7.5-16.6-18.7 0-11.7 7.3-19.3 17.1-19.3 10.1.1 16.6 7.7 16.6 18.6zm-28.6.6c0 7.9 4.3 14.9 11.8 14.9 7.5 0 11.8-6.9 11.8-15.3 0-7.3-3.8-14.9-11.8-14.9-7.9 0-11.8 7.3-11.8 15.3zM62.7 43.8c0 2.7.1 5.1.2 7.2h-4.3l-.3-4.3h-.1c-1.3 2.1-4 4.9-8.8 4.9-4.2 0-9.1-2.3-9.1-11.6V24.6h4.8v14.6c0 5 1.5 8.4 5.9 8.4 3.2 0 5.5-2.2 6.3-4.4.3-.7.4-1.6.4-2.5V24.6h4.8v19.2zM67.3 32.8c0-3.1-.1-5.8-.2-8.2h4.2l.2 5.2h.2c1.2-3.5 4.1-5.8 7.3-5.8.5 0 .9.1 1.4.2v4.5c-.5-.1-1-.2-1.6-.2-3.4 0-5.8 2.6-6.5 6.2-.1.7-.2 1.4-.2 2.2V51h-4.8V32.8zM95.4 51L86 14.2h5l4.4 18.6c1.1 4.6 2.1 9.2 2.7 12.7h.1c.6-3.7 1.8-8 3-12.8l4.9-18.5h5l4.5 18.7c1 4.4 2 8.7 2.6 12.6h.1c.8-4 1.8-8.1 3-12.7l4.9-18.5h4.9L120.6 51h-5L111 31.9c-1.1-4.7-1.9-8.3-2.4-12h-.1c-.7 3.7-1.5 7.3-2.8 12L100.4 51h-5zM154.9 37.6c0 9.8-6.8 14-13.2 14-7.2 0-12.7-5.2-12.7-13.6 0-8.8 5.8-14 13.1-14 7.7 0 12.8 5.5 12.8 13.6zm-21 .3c0 5.8 3.3 10.1 8 10.1 4.6 0 8-4.3 8-10.3 0-4.5-2.2-10.1-7.9-10.1s-8.1 5.2-8.1 10.3zM158.2 32.8c0-3.1-.1-5.8-.2-8.2h4.2l.2 5.2h.2c1.2-3.5 4.1-5.8 7.3-5.8.5 0 .9.1 1.4.2v4.5c-.5-.1-1-.2-1.6-.2-3.4 0-5.8 2.6-6.5 6.2-.1.7-.2 1.4-.2 2.2V51h-4.8V32.8zM173.5 12.3h4.8V51h-4.8V12.3zM206.5 12.3v31.9c0 2.3.1 5 .2 6.8h-4.3l-.2-4.6h-.2c-1.5 2.9-4.7 5.2-9 5.2-6.4 0-11.3-5.4-11.3-13.4-.1-8.8 5.4-14.2 11.9-14.2 4 0 6.8 1.9 8 4h.1V12.3h4.8zm-4.8 23.1c0-.6-.1-1.4-.2-2a7 7 0 00-6.9-5.6c-5 0-7.9 4.4-7.9 10.2 0 5.3 2.6 9.8 7.8 9.8 3.2 0 6.2-2.1 7.1-5.7.2-.7.2-1.3.2-2.1v-4.6zM42.8 64c.1 1.6-1.1 2.9-3.1 2.9-1.7 0-2.9-1.3-2.9-2.9 0-1.7 1.3-3 3-3 1.9 0 3 1.3 3 3zm-5.4 33.8V71.4h4.8v26.4h-4.8zM47.5 78.6c0-2.7-.1-5-.2-7.1h4.3l.3 4.4h.1c1.3-2.5 4.4-5 8.8-5 3.7 0 9.4 2.2 9.4 11.2v15.8h-4.8V82.6c0-4.3-1.6-7.8-6.1-7.8-3.2 0-5.6 2.2-6.5 4.9-.2.6-.3 1.4-.3 2.2v15.9h-4.8V78.6zM84 61.6c2.9-.4 6.3-.8 10.1-.8 6.8 0 11.7 1.6 14.9 4.6 3.3 3 5.2 7.3 5.2 13.2 0 6-1.9 10.9-5.3 14.3-3.4 3.4-9.1 5.3-16.3 5.3-3.4 0-6.2-.2-8.6-.4V61.6zm4.8 32.5c1.2.2 3 .3 4.8.3 10.2 0 15.7-5.7 15.7-15.6.1-8.7-4.9-14.2-14.9-14.2-2.5 0-4.3.2-5.6.5v29zM132.1 97.8l-.4-3.3h-.2a9.79 9.79 0 01-8.1 3.9c-5.4 0-8.1-3.8-8.1-7.6 0-6.4 5.7-9.9 15.9-9.8v-.5c0-2.2-.6-6.1-6-6.1-2.5 0-5 .8-6.9 2l-1.1-3.2c2.2-1.4 5.4-2.3 8.7-2.3 8.1 0 10.1 5.5 10.1 10.8v9.9c0 2.3.1 4.5.4 6.3h-4.3zm-.7-13.4c-5.3-.1-11.2.8-11.2 5.9 0 3.1 2.1 4.6 4.5 4.6 3.4 0 5.6-2.2 6.4-4.4.2-.5.3-1 .3-1.5v-4.6zM146.6 63.9v7.6h6.9v3.7h-6.9v14.2c0 3.3.9 5.1 3.6 5.1 1.3 0 2.2-.2 2.8-.3l.2 3.6c-.9.4-2.4.7-4.3.7-2.2 0-4-.7-5.2-2-1.4-1.4-1.9-3.8-1.9-6.9V75.1h-4.1v-3.7h4.1v-6.3l4.8-1.2zM171.4 97.8l-.4-3.3h-.2a9.79 9.79 0 01-8.1 3.9c-5.4 0-8.1-3.8-8.1-7.6 0-6.4 5.7-9.9 15.9-9.8v-.5c0-2.2-.6-6.1-6-6.1-2.5 0-5 .8-6.9 2l-1.1-3.2c2.2-1.4 5.4-2.3 8.7-2.3 8.1 0 10.1 5.5 10.1 10.8v9.9c0 2.3.1 4.5.4 6.3h-4.3zm-.7-13.4c-5.3-.1-11.2.8-11.2 5.9 0 3.1 2.1 4.6 4.5 4.6 3.4 0 5.6-2.2 6.4-4.4.2-.5.3-1 .3-1.5v-4.6z"/></g></g></a></g><a href="https://ourworldindata.org/grapher/percentage-of-households-using-solid-fuels-for-cooking-rural-vs-urban" target="_blank"><text font-size="23.4" x="15" y="33.7" fill="#555"><tspan x="15" y="33.72">Percentage of households using solid fuels for cooking, rural vs. urban</tspan></text></a><text font-size="14.4" x="15" y="51.9" fill="#666"><tspan x="15" y="51.92">Share of rural households versus urban households using solid fuels for cooking. Solid fuels include wood, crop</tspan><tspan x="15" y="67.76">residues, dung, charcoal, and coal.</tspan></text></g><g><g class="AxisBoxView"><g class="HorizontalAxis"><text font-size="12.6" x="194" y="554"><tspan x="194.02" y="553.98">Percentage of urban households using solid fuels for cooking</tspan></text><text x="84.2" y="533.9" fill="#666" text-anchor="middle" font-size="16.2">0%</text><text x="210.4" y="533.9" fill="#666" text-anchor="middle" font-size="16.2">20%</text><text x="336.5" y="533.9" fill="#666" text-anchor="middle" font-size="16.2">40%</text><text x="462.7" y="533.9" fill="#666" text-anchor="middle" font-size="16.2">60%</text><text x="588.8" y="533.9" fill="#666" text-anchor="middle" font-size="16.2">80%</text><text x="715" y="533.9" fill="#666" text-anchor="middle" font-size="16.2">100%</text></g><g class="VerticalAxis"><text font-size="12.6" x="-490.8" y="25.1" transform="rotate(-90)"><tspan x="-490.79" y="25.08">Percentage of rural households using solid fuels for cooking</tspan></text><text x="79.23" y="512.7" fill="#666" dominant-baseline="middle" text-anchor="end" font-size="16.2">0%</text><text x="79.23" y="428.2" fill="#666" dominant-baseline="middle" text-anchor="end" font-size="16.2">20%</text><text x="79.23" y="343.7" fill="#666" dominant-baseline="middle" text-anchor="end" font-size="16.2">40%</text><text x="79.23" y="259.3" fill="#666" dominant-baseline="middle" text-anchor="end" font-size="16.2">60%</text><text x="79.23" y="174.8" fill="#666" dominant-baseline="middle" text-anchor="end" font-size="16.2">80%</text><text x="79.23" y="90.3" fill="#666" dominant-baseline="middle" text-anchor="end" font-size="16.2">100%</text></g><g class="AxisGridLines"><path stroke="#ccc" d="M84.23 512.7H715"/><path stroke="#ddd" stroke-dasharray="3,2" d="M84.23 428.2H715M84.23 343.7H715M84.23 259.3H715M84.23 174.8H715M84.23 90.3H715"/></g><g class="AxisGridLines"><path stroke="#ccc" d="M84.2 512.7V90.3"/><path stroke="#ddd" stroke-dasharray="3,2" d="M210.4 512.7V90.3M336.5 512.7V90.3M462.7 512.7V90.3M588.8 512.7V90.3M715 512.7V90.3"/></g></g><g class="ComparisonLine"><defs><clipPath id="a"><path d="M84.23 90.3H715v422.4H84.23z"/></clipPath></defs><path d="M84.2 512.7l6.3-4.2 6.3-4.2 6.4-4.3 6.3-4.2 6.3-4.2 6.3-4.2 6.3-4.3 6.3-4.2 6.3-4.2 6.3-4.2 6.3-4.3 6.3-4.2 6.3-4.2 6.3-4.2 6.3-4.3 6.4-4.2 6.3-4.2 6.3-4.2 6.3-4.3 6.3-4.2 6.3-4.2 6.3-4.2 6.3-4.3 6.3-4.2 6.3-4.2 6.3-4.2 6.3-4.2 6.3-4.3 6.4-4.2 6.3-4.2 6.3-4.2 6.3-4.3 6.3-4.2 6.3-4.2 6.3-4.2 6.3-4.3 6.3-4.2 6.3-4.2 6.3-4.2 6.3-4.3 6.3-4.2 6.4-4.2 6.3-4.2 6.3-4.3 6.3-4.2 6.3-4.2 6.3-4.2 6.3-4.3 6.3-4.2 6.3-4.2 6.3-4.2 6.3-4.2 6.3-4.3 6.3-4.2 6.4-4.2 6.3-4.2 6.3-4.3 6.3-4.2 6.3-4.2 6.3-4.2 6.3-4.3 6.3-4.2 6.3-4.2 6.3-4.2 6.3-4.3 6.3-4.2 6.3-4.2 6.4-4.2 6.3-4.3 6.3-4.2 6.3-4.2 6.3-4.2 6.3-4.3 6.3-4.2 6.3-4.2 6.3-4.2 6.3-4.2 6.3-4.3 6.3-4.2 6.3-4.2 6.4-4.2 6.3-4.3 6.3-4.2 6.3-4.2 6.3-4.2 6.3-4.3 6.3-4.2 6.3-4.2 6.3-4.2 6.3-4.3 6.3-4.2 6.3-4.2 6.3-4.2 6.4-4.3 6.3-4.2 6.3-4.2 6.3-4.2 6.3-4.3 6.3-4.2" clip-path="url(#a)" fill="none" stroke="#ccc"/></g><g clip-path="url(#b)" class="PointsWithLabels clickable"><path fill="rgba(255,255,255,0)" d="M84.23 90.3H715v422.4H84.23z"/><defs><clipPath id="b"><path d="M74.23 80.3H725v442.4H74.23z"/></clipPath></defs><circle cx="500" cy="111" r="1.78" fill="#000" opacity=".8"/><circle cx="513" cy="103" r="1.78" fill="#000" opacity=".8"/><circle cx="443" cy="115" r="1.78" fill="#000" opacity=".8"/><circle cx="159" cy="162" r="1.78" fill="#000" opacity=".8"/><circle cx="576" cy="107" r="1.78" fill="#000" opacity=".8"/><circle cx="223" cy="276" r="1.78" fill="#000" opacity=".8"/><circle cx="115" cy="369" r="1.78" fill="#000" opacity=".8"/><circle cx="361" cy="174" r="1.78" fill="#000" opacity=".8"/><circle cx="323" cy="119" r="1.78" fill="#000" opacity=".8"/><circle cx="103" cy="398" r="1.78" fill="#000" opacity=".8"/><circle cx="191" cy="276" r="1.78" fill="#000" opacity=".8"/><circle cx="166" cy="314" r="1.78" fill="#000" opacity=".8"/><text x="500" y="108.22" font-size="11" font-family="Arial Narrow, Arial, sans-serif" fill="#666">Sub-Saharan Africa</text><text x="159" y="159.22" font-size="11" font-family="Arial Narrow, Arial, sans-serif" fill="#666">Southern Africa</text><text x="223" y="273.22" font-size="11" font-family="Arial Narrow, Arial, sans-serif" fill="#666">Asia</text><text x="115" y="366.22" font-size="11" font-family="Arial Narrow, Arial, sans-serif" fill="#666">Central Asia</text><text x="361" y="171.22" font-size="11" font-family="Arial Narrow, Arial, sans-serif" fill="#666">Southeast Asia</text><text x="323" y="116.22" font-size="11" font-family="Arial Narrow, Arial, sans-serif" fill="#666">South Asia</text><text x="103" y="395.22" font-size="11" font-family="Arial Narrow, Arial, sans-serif" fill="#666">Western Asia</text><text x="166" y="311.22" font-size="11" font-family="Arial Narrow, Arial, sans-serif" fill="#666">Eastern Europe</text></g></g><g class="SourcesFooter" fill="#777"><g class="clickable" fill="#777"><text font-size="12.6" x="15" y="581.6"><tspan x="15" y="581.58">Source: United Nations Publications (2010)</tspan></text></g><text font-size="12.6" x="537.4" y="581.6"><tspan x="537.39" y="581.58"><a target="_blank" href="https://ourworldindata.org/indoor-air-pollution/" fill="#777">OurWorldInData.org/indoor-air-pollution/</a> • <a href="http://creativecommons.org/licenses/by-sa/4.0/deed.en_US" target="_blank" fill="#777">CC BY-SA</a></tspan></text></g></g></svg>

<svg xmlns="http://www.w3.org/2000/svg" version="1.1" style="font-family: 'Helvetica Neue', Helvetica, Arial, sans-serif; font-size: 18px; background-color: white; text-rendering: optimizeLegibility; -webkit-font-smoothing: antialiased;" width="850" height="600"><g class="ChartTab"><g class="HeaderView"><g opacity="0.8" transform="translate(770, 15) scale(0.31)"><a xmlns:xlink="http://www.w3.org/1999/xlink" xlink:href="https://ourworldindata.org" target="_blank"><g><rect x="0" y="0" fill="#1B2543" width="211.2" height="130.1"/><rect x="0" y="112.2" fill="#E63912" width="211.2" height="17.9"/><g><rect x="1.2" y="12.3" fill="none" width="210.2" height="99.2"/><path fill="#FFFFFF" d="M37.8,32.2c0,12.7-7.7,19.4-17.1,19.4c-9.7,0-16.6-7.5-16.6-18.7c0-11.7,7.3-19.3,17.1-19.3 C31.3,13.7,37.8,21.3,37.8,32.2z M9.2,32.8c0,7.9,4.3,14.9,11.8,14.9c7.5,0,11.8-6.9,11.8-15.3c0-7.3-3.8-14.9-11.8-14.9 C13.1,17.5,9.2,24.8,9.2,32.8z"/><path fill="#FFFFFF" d="M62.7,43.8c0,2.7,0.1,5.1,0.2,7.2h-4.3l-0.3-4.3h-0.1c-1.3,2.1-4,4.9-8.8,4.9c-4.2,0-9.1-2.3-9.1-11.6 V24.6h4.8v14.6c0,5,1.5,8.4,5.9,8.4c3.2,0,5.5-2.2,6.3-4.4c0.3-0.7,0.4-1.6,0.4-2.5V24.6h4.8V43.8z"/><path fill="#FFFFFF" d="M67.3,32.8c0-3.1-0.1-5.8-0.2-8.2h4.2l0.2,5.2h0.2c1.2-3.5,4.1-5.8,7.3-5.8c0.5,0,0.9,0.1,1.4,0.2v4.5 c-0.5-0.1-1-0.2-1.6-0.2c-3.4,0-5.8,2.6-6.5,6.2c-0.1,0.7-0.2,1.4-0.2,2.2V51h-4.8V32.8z"/><path fill="#FFFFFF" d="M95.4,51l-9.4-36.8h5l4.4,18.6c1.1,4.6,2.1,9.2,2.7,12.7h0.1c0.6-3.7,1.8-8,3-12.8l4.9-18.5h5l4.5,18.7 c1,4.4,2,8.7,2.6,12.6h0.1c0.8-4,1.8-8.1,3-12.7l4.9-18.5h4.9L120.6,51h-5L111,31.9c-1.1-4.7-1.9-8.3-2.4-12h-0.1 c-0.7,3.7-1.5,7.3-2.8,12L100.4,51H95.4z"/><path fill="#FFFFFF" d="M154.9,37.6c0,9.8-6.8,14-13.2,14c-7.2,0-12.7-5.2-12.7-13.6c0-8.8,5.8-14,13.1-14 C149.8,24,154.9,29.5,154.9,37.6z M133.9,37.9c0,5.8,3.3,10.1,8,10.1c4.6,0,8-4.3,8-10.3c0-4.5-2.2-10.1-7.9-10.1 C136.3,27.6,133.9,32.8,133.9,37.9z"/><path fill="#FFFFFF" d="M158.2,32.8c0-3.1-0.1-5.8-0.2-8.2h4.2l0.2,5.2h0.2c1.2-3.5,4.1-5.8,7.3-5.8c0.5,0,0.9,0.1,1.4,0.2v4.5 c-0.5-0.1-1-0.2-1.6-0.2c-3.4,0-5.8,2.6-6.5,6.2c-0.1,0.7-0.2,1.4-0.2,2.2V51h-4.8V32.8z"/><path fill="#FFFFFF" d="M173.5,12.3h4.8V51h-4.8V12.3z"/><path fill="#FFFFFF" d="M206.5,12.3v31.9c0,2.3,0.1,5,0.2,6.8h-4.3l-0.2-4.6H202c-1.5,2.9-4.7,5.2-9,5.2 c-6.4,0-11.3-5.4-11.3-13.4c-0.1-8.8,5.4-14.2,11.9-14.2c4,0,6.8,1.9,8,4h0.1V12.3H206.5z M201.7,35.4c0-0.6-0.1-1.4-0.2-2 c-0.7-3.1-3.3-5.6-6.9-5.6c-5,0-7.9,4.4-7.9,10.2c0,5.3,2.6,9.8,7.8,9.8c3.2,0,6.2-2.1,7.1-5.7c0.2-0.7,0.2-1.3,0.2-2.1V35.4z"/><path fill="#FFFFFF" d="M42.8,64c0.1,1.6-1.1,2.9-3.1,2.9c-1.7,0-2.9-1.3-2.9-2.9c0-1.7,1.3-3,3-3C41.7,61,42.8,62.3,42.8,64z M37.4,97.8V71.4h4.8v26.4H37.4z"/><path fill="#FFFFFF" d="M47.5,78.6c0-2.7-0.1-5-0.2-7.1h4.3l0.3,4.4h0.1c1.3-2.5,4.4-5,8.8-5c3.7,0,9.4,2.2,9.4,11.2v15.8h-4.8 V82.6c0-4.3-1.6-7.8-6.1-7.8c-3.2,0-5.6,2.2-6.5,4.9c-0.2,0.6-0.3,1.4-0.3,2.2v15.9h-4.8V78.6z"/><path fill="#FFFFFF" d="M84,61.6c2.9-0.4,6.3-0.8,10.1-0.8c6.8,0,11.7,1.6,14.9,4.6c3.3,3,5.2,7.3,5.2,13.2c0,6-1.9,10.9-5.3,14.3 c-3.4,3.4-9.1,5.3-16.3,5.3c-3.4,0-6.2-0.2-8.6-0.4V61.6z M88.8,94.1c1.2,0.2,3,0.3,4.8,0.3c10.2,0,15.7-5.7,15.7-15.6 c0.1-8.7-4.9-14.2-14.9-14.2c-2.5,0-4.3,0.2-5.6,0.5V94.1z"/><path fill="#FFFFFF" d="M132.1,97.8l-0.4-3.3h-0.2c-1.5,2.1-4.3,3.9-8.1,3.9c-5.4,0-8.1-3.8-8.1-7.6c0-6.4,5.7-9.9,15.9-9.8v-0.5 c0-2.2-0.6-6.1-6-6.1c-2.5,0-5,0.8-6.9,2l-1.1-3.2c2.2-1.4,5.4-2.3,8.7-2.3c8.1,0,10.1,5.5,10.1,10.8v9.9c0,2.3,0.1,4.5,0.4,6.3 H132.1z M131.4,84.4c-5.3-0.1-11.2,0.8-11.2,5.9c0,3.1,2.1,4.6,4.5,4.6c3.4,0,5.6-2.2,6.4-4.4c0.2-0.5,0.3-1,0.3-1.5V84.4z"/><path fill="#FFFFFF" d="M146.6,63.9v7.6h6.9v3.7h-6.9v14.2c0,3.3,0.9,5.1,3.6,5.1c1.3,0,2.2-0.2,2.8-0.3l0.2,3.6 c-0.9,0.4-2.4,0.7-4.3,0.7c-2.2,0-4-0.7-5.2-2c-1.4-1.4-1.9-3.8-1.9-6.9V75.1h-4.1v-3.7h4.1v-6.3L146.6,63.9z"/><path fill="#FFFFFF" d="M171.4,97.8l-0.4-3.3h-0.2c-1.5,2.1-4.3,3.9-8.1,3.9c-5.4,0-8.1-3.8-8.1-7.6c0-6.4,5.7-9.9,15.9-9.8v-0.5 c0-2.2-0.6-6.1-6-6.1c-2.5,0-5,0.8-6.9,2l-1.1-3.2c2.2-1.4,5.4-2.3,8.7-2.3c8.1,0,10.1,5.5,10.1,10.8v9.9c0,2.3,0.1,4.5,0.4,6.3 H171.4z M170.7,84.4c-5.3-0.1-11.2,0.8-11.2,5.9c0,3.1,2.1,4.6,4.5,4.6c3.4,0,5.6-2.2,6.4-4.4c0.2-0.5,0.3-1,0.3-1.5V84.4z"/></g></g></a></g><a href="https://ourworldindata.org/grapher/percentage-of-households-using-solid-fuels-for-cooking-rural-vs-urban" target="_blank"><text font-size="23.40" x="15.0" y="33.7" fill="#555"><tspan x="15" y="33.72">Percentage of households using solid fuels for cooking, rural vs. urban</tspan></text></a><text font-size="14.40" x="15.0" y="51.9" fill="#666"><tspan x="15" y="51.919999999999995">Share of rural households versus urban households using solid fuels for cooking. Solid fuels include wood, crop</tspan><tspan x="15" y="67.75999999999999">residues, dung, charcoal, and coal. </tspan></text></g><g><g class="AxisBoxView"><g class="HorizontalAxis"><text font-size="12.60" x="194.0" y="554.0"><tspan x="194.018" y="553.98">Percentage of urban households using solid fuels for cooking</tspan></text><text x="84.2" y="533.9" fill="#666" text-anchor="middle" font-size="16.2">0%</text><text x="210.4" y="533.9" fill="#666" text-anchor="middle" font-size="16.2">20%</text><text x="336.5" y="533.9" fill="#666" text-anchor="middle" font-size="16.2">40%</text><text x="462.7" y="533.9" fill="#666" text-anchor="middle" font-size="16.2">60%</text><text x="588.8" y="533.9" fill="#666" text-anchor="middle" font-size="16.2">80%</text><text x="715" y="533.9" fill="#666" text-anchor="middle" font-size="16.2">100%</text></g><g class="VerticalAxis"><text font-size="12.60" x="-490.8" y="25.1" transform="rotate(-90)"><tspan x="-490.79100000000005" y="25.080000000000002">Percentage of rural households using solid fuels for cooking</tspan></text><text x="79.23" y="512.7" fill="#666" dominant-baseline="middle" text-anchor="end" font-size="16.2">0%</text><text x="79.23" y="428.2" fill="#666" dominant-baseline="middle" text-anchor="end" font-size="16.2">20%</text><text x="79.23" y="343.7" fill="#666" dominant-baseline="middle" text-anchor="end" font-size="16.2">40%</text><text x="79.23" y="259.3" fill="#666" dominant-baseline="middle" text-anchor="end" font-size="16.2">60%</text><text x="79.23" y="174.8" fill="#666" dominant-baseline="middle" text-anchor="end" font-size="16.2">80%</text><text x="79.23" y="90.3" fill="#666" dominant-baseline="middle" text-anchor="end" font-size="16.2">100%</text></g><g class="AxisGridLines"><line x1="84.23" y1="512.7" x2="715.00" y2="512.7" stroke="#ccc"></line><line x1="84.23" y1="428.2" x2="715.00" y2="428.2" stroke="#ddd" stroke-dasharray="3,2"></line><line x1="84.23" y1="343.7" x2="715.00" y2="343.7" stroke="#ddd" stroke-dasharray="3,2"></line><line x1="84.23" y1="259.3" x2="715.00" y2="259.3" stroke="#ddd" stroke-dasharray="3,2"></line><line x1="84.23" y1="174.8" x2="715.00" y2="174.8" stroke="#ddd" stroke-dasharray="3,2"></line><line x1="84.23" y1="90.3" x2="715.00" y2="90.3" stroke="#ddd" stroke-dasharray="3,2"></line></g><g class="AxisGridLines"><line x1="84.2" y1="512.70" x2="84.2" y2="90.30" stroke="#ccc"></line><line x1="210.4" y1="512.70" x2="210.4" y2="90.30" stroke="#ddd" stroke-dasharray="3,2"></line><line x1="336.5" y1="512.70" x2="336.5" y2="90.30" stroke="#ddd" stroke-dasharray="3,2"></line><line x1="462.7" y1="512.70" x2="462.7" y2="90.30" stroke="#ddd" stroke-dasharray="3,2"></line><line x1="588.8" y1="512.70" x2="588.8" y2="90.30" stroke="#ddd" stroke-dasharray="3,2"></line><line x1="715" y1="512.70" x2="715" y2="90.30" stroke="#ddd" stroke-dasharray="3,2"></line></g></g><g class="ComparisonLine"><defs><clipPath id="axisBounds-297"><rect x="84.23400000000001" y="90.3" width="630.766" height="422.40000000000003"></rect></clipPath></defs><path d="M84.2,512.7L90.5,508.5L96.8,504.3L103.2,500L109.5,495.8L115.8,491.6L122.1,487.4L128.4,483.1L134.7,478.9L141,474.7L147.3,470.5L153.6,466.2L159.9,462L166.2,457.8L172.5,453.6L178.8,449.3L185.2,445.1L191.5,440.9L197.8,436.7L204.1,432.4L210.4,428.2L216.7,424L223,419.8L229.3,415.5L235.6,411.3L241.9,407.1L248.2,402.9L254.5,398.7L260.8,394.4L267.2,390.2L273.5,386L279.8,381.8L286.1,377.5L292.4,373.3L298.7,369.1L305,364.9L311.3,360.6L317.6,356.4L323.9,352.2L330.2,348L336.5,343.7L342.8,339.5L349.2,335.3L355.5,331.1L361.8,326.8L368.1,322.6L374.4,318.4L380.7,314.2L387,309.9L393.3,305.7L399.6,301.5L405.9,297.3L412.2,293.1L418.5,288.8L424.8,284.6L431.2,280.4L437.5,276.2L443.8,271.9L450.1,267.7L456.4,263.5L462.7,259.3L469,255L475.3,250.8L481.6,246.6L487.9,242.4L494.2,238.1L500.5,233.9L506.8,229.7L513.2,225.5L519.5,221.2L525.8,217L532.1,212.8L538.4,208.6L544.7,204.3L551,200.1L557.3,195.9L563.6,191.7L569.9,187.5L576.2,183.2L582.5,179L588.8,174.8L595.2,170.6L601.5,166.3L607.8,162.1L614.1,157.9L620.4,153.7L626.7,149.4L633,145.2L639.3,141L645.6,136.8L651.9,132.5L658.2,128.3L664.5,124.1L670.8,119.9L677.2,115.6L683.5,111.4L689.8,107.2L696.1,103L702.4,98.7L708.7,94.5" clip-path="url(#axisBounds-297)" fill="none" stroke="#ccc"></path></g><g clip-path="url(#scatterBounds-298)" class="PointsWithLabels clickable"><rect x="84.23400000000001" y="90.3" width="630.766" height="422.40000000000003" fill="rgba(255,255,255,0)"></rect><defs><clipPath id="scatterBounds-298"><rect x="74.23400000000001" y="80.3" width="650.766" height="442.40000000000003"></rect></clipPath></defs><circle cx="500" cy="111" r="1.7841241161527712" fill="#000" opacity="0.8"></circle><circle cx="513" cy="103" r="1.7841241161527712" fill="#000" opacity="0.8"></circle><circle cx="443" cy="115" r="1.7841241161527712" fill="#000" opacity="0.8"></circle><circle cx="159" cy="162" r="1.7841241161527712" fill="#000" opacity="0.8"></circle><circle cx="576" cy="107" r="1.7841241161527712" fill="#000" opacity="0.8"></circle><circle cx="223" cy="276" r="1.7841241161527712" fill="#000" opacity="0.8"></circle><circle cx="115" cy="369" r="1.7841241161527712" fill="#000" opacity="0.8"></circle><circle cx="361" cy="174" r="1.7841241161527712" fill="#000" opacity="0.8"></circle><circle cx="323" cy="119" r="1.7841241161527712" fill="#000" opacity="0.8"></circle><circle cx="103" cy="398" r="1.7841241161527712" fill="#000" opacity="0.8"></circle><circle cx="191" cy="276" r="1.7841241161527712" fill="#000" opacity="0.8"></circle><circle cx="166" cy="314" r="1.7841241161527712" fill="#000" opacity="0.8"></circle><text x="500" y="108.21587588384723" font-size="11" font-family="Arial Narrow, Arial, sans-serif" fill="#666">Sub-Saharan Africa</text><text x="159" y="159.21587588384722" font-size="11" font-family="Arial Narrow, Arial, sans-serif" fill="#666">Southern Africa</text><text x="223" y="273.2158758838472" font-size="11" font-family="Arial Narrow, Arial, sans-serif" fill="#666">Asia</text><text x="115" y="366.2158758838472" font-size="11" font-family="Arial Narrow, Arial, sans-serif" fill="#666">Central Asia</text><text x="361" y="171.21587588384722" font-size="11" font-family="Arial Narrow, Arial, sans-serif" fill="#666">Southeast Asia</text><text x="323" y="116.21587588384723" font-size="11" font-family="Arial Narrow, Arial, sans-serif" fill="#666">South Asia</text><text x="103" y="395.2158758838472" font-size="11" font-family="Arial Narrow, Arial, sans-serif" fill="#666">Western Asia</text><text x="166" y="311.2158758838472" font-size="11" font-family="Arial Narrow, Arial, sans-serif" fill="#666">Eastern Europe</text></g><g style="cursor: pointer;" class="ScatterColorLegend clickable"></g></g><g style="fill: #777;" class="SourcesFooter"><g style="fill: #777;" class="clickable"><text font-size="12.60" x="15.0" y="581.6"><tspan x="15" y="581.58">Source: United Nations Publications (2010)</tspan></text></g><text font-size="12.60" x="537.4" y="581.6"><tspan x="537.3879999999999" y="581.58"><a target='_blank' style='fill: #777;' href='https://ourworldindata.org/indoor-air-pollution/'>OurWorldInData.org/indoor-air-pollution/</a> • <a style="fill: #777;" href="http://creativecommons.org/licenses/by-sa/4.0/deed.en_US" target="_blank">CC BY-SA</a></tspan></text></g></g></svg>
